X:1
T:Abendruhe
T:Wolfgang Amadeus Mozart
T:Abendruhe
T:CPDL   —   Creative Commons Attribution Non Commercial 3.0
C:Wolfgang Amadeus Mozart
Z:CPDL   —   Creative Commons Attribution Non Commercial 3.0
%%score [ ( 1 2 ) ( 3 4 ) ]
L:1/8
Q:1/4=80
M:3/4
K:Db
V:1 treble nm="Sopran\nAlt"
V:2 treble 
V:3 bass nm="Tenor\nBass"
V:4 bass 
V:1
"^Langsam"!p! A2 |!<(! d4 d2!<)! | c4!mf! d2 | e4 cA |!>(! A>B!>)! A2 z2 |!mf! d2!<(! c2 d2!<)! | %6
w: 1.  Wie|herr- lich|sind die|A- bend- *|stun- * den!|Wie wohl ist|
w: 2.  Welch'|sü- ßer|Trost ist|uns be- *|schie- * den,|Na- tur, in|
w: 3.  Wie|wohl ist|mir! Ich|at- me _|frei- * er,|be- ginnt der|
!f! e4 d2 | (c2 d2) B2 | BA A2 z2 |!pp! A2 A2 A2 | !>!cB B2 z2 |!pp! c4 c2 |!>(! (e2 d2)!>)! z2 | %13
w: dem, der|sie _ emp-|fun- * den!|O wel- che|Won- * ne|füllt die|Brust! _|
w: dei- nem|heil'- * gen|Frie- * den!|Wer nicht von|Sün- * den|ganz er-|füllt, _|
w: ew'- gen|Ster- * ne|Fei- * er.|O stil- ler|A- * bend,|hol- de|Zeit, _|
!p! c2!<(! c2 c2!<)! |!mf! d4 e2 |!>(! d4 c2!>)! |!pp! d6 |!mf! d2!<(! d2 d2!<)! | d4!f! B2 | %19
w: Mein Herz zer-|fließt in|rei- ner|Lust,|mein Herz zer-|fließt in|
w: den stimmt der|A- bend|froh und|mild,|den stimmt der|A- bend|
w: freu- dig sei|dir mein|Lied ge-|weiht,|freu- dig sei|dir mein|
 A4 A2 |!pp!!>(! !fermata!A4!>)! |] %21
w: rei- ner|Lust.|
w: froh und|mild.|
w: Lied ge-|weiht!|
V:2
 F2 | F4 F2 | G4 F2 | E4 G2 | F>G F2 x2 | F2 G2 F2 | (E2 A2) B2 | (A2 B2) =G2 | E2 E2 x2 | %9
 C2 C2 C2 | D2 D2 x2 | E4 G2 | F4 x2 | E2 E2 E2 | D4 G2 | F4 E2 | F6 | =E2 E2 E2 | F4 G2 | F4 G2 | %20
 F4 |] %21
V:3
!p! D2 |!<(! D4 A,2!<)! | A,4!mf! A,2 | A,4 E2 |!>(! D2!>)! D2 z2 |!mf! A,2!<(! A,2 A,2!<)! | %6
!f! (A,2 E2) F2 | E4 D2 |!>(! DC C2!>)! z2 |!pp! E,2 E,2 E,2 | !>!F,2 F,2 z2 |!pp! A,4 A,2 | %12
!>(! A,4!>)! z2 |!p! F,2!<(! F,2 F,2!<)! |!mf! F,4 B,2 |!>(! A,4 A,2!>)! |!pp! A,6 | %17
!mf! =G,2!<(! G,2 G,2!<)! | A,4!f! D2 | D4 C2 |!pp!!>(! !fermata!D4!>)! |] %21
V:4
 D,2 | D,4 D,2 | E,4 D,2 | C,4 C,2 | D,2 D,2 x2 | D,2 E,2 D,2 | C,4 D,2 | E,4 E,2 | A,2 A,,2 x2 | %9
 A,,2 A,,2 A,,2 | A,,2 A,,2 x2 | A,,4 A,,2 | A,,4 x2 | =A,,2 A,,2 A,,2 | B,,4 G,,2 | A,,4 A,,2 | %16
 D,6 | B,,2 B,,2 B,,2 | A,,4 G,,2 | A,,4 A,,2 | D,4 |] %21

